X: 1
T: Rainbow's End, The
M: 4/4
L: 1/8
R: reel
K: Dmaj
GE |: D2 DE G2 GE | D2 DE GA B2 | dBBA GABG | A2 BA AGEG | 
D2 DE G2 GE | D2 DE GABG | B2 BA G2 GA | BAGE ED D2 :|
Bddc d2 GA | BAAG EG G2 | EAAG EFGA | BGAG EG D2 | 
Bddc d2 GA | BAAG EF G2 | B2 BA G2 GA | BAGE ED D2 :|
